assets/img/tags-icon.svg

<svg height="50" viewBox="0 0 50 50" width="50" xmlns="http://www.w3.org/2000/svg"><g fill="none" fill-rule="evenodd" transform="translate(7.5 7.5)"><circle cx="12.897753" cy="12.897753" fill="#26ba31" r="2.548501" transform="matrix(.70710678 -.70710678 .70710678 .70710678 -5.342424 12.897753)"/><path d="m6.83694932 9.8834381 7.34449298-6.57607135c1.3290257-1.18997565 3.3403848-1.18997565 4.6694105 0l7.344493 6.57607135c.7415235.6639412 1.1652948 1.6121916 1.1652948 2.6075183v14.6265116c0 1.9329966-1.5670034 3.5-3.5 3.5h-14.68898605c-1.93299663 0-3.5-1.5670034-3.5-3.5v-14.6265116c0-.9953267.42377124-1.9435771 1.16529477-2.6075183z" stroke="#26ba31" stroke-width="3" transform="matrix(.70710678 -.70710678 .70710678 .70710678 -6.841232 16.516156)"/></g></svg>

<?xml version="1.0" encoding="UTF-8"?>
<svg width="50px" height="50px" viewBox="0 0 50 50" version="1.1" xmlns="http://www.w3.org/2000/svg" xmlns:xlink="http://www.w3.org/1999/xlink">
    <!-- Generator: Sketch 50.2 (55047) - http://www.bohemiancoding.com/sketch -->
    <title>tags-icon</title>
    <desc>Created with Sketch.</desc>
    <defs></defs>
    <g id="tags-icon" stroke="none" stroke-width="1" fill="none" fill-rule="evenodd">
        <g id="Group" transform="translate(-2.000000, 7.500000)">
            <circle id="Dot" fill="#26BA31" transform="translate(12.897753, 12.897753) rotate(-45.000000) translate(-12.897753, -12.897753) " cx="12.8977526" cy="12.8977526" r="2.54850088"></circle>
            <path d="M6.83694932,9.8834381 L14.1814423,3.30736675 C15.510468,2.1173911 17.5218271,2.1173911 18.8508528,3.30736675 L26.1953458,9.8834381 C26.9368693,10.5473793 27.3606406,11.4956297 27.3606406,12.4909564 L27.3606406,27.117468 C27.3606406,29.0504646 25.7936372,30.617468 23.8606406,30.617468 L9.17165455,30.617468 C7.23865792,30.617468 5.67165455,29.0504646 5.67165455,27.117468 L5.67165455,12.4909564 C5.67165455,11.4956297 6.09542579,10.5473793 6.83694932,9.8834381 Z" id="Body" stroke="#26BA31" stroke-width="3" transform="translate(16.516148, 16.516176) rotate(-45.000000) translate(-16.516148, -16.516176) "></path>
        </g>
    </g>
</svg>
